X: 22
T: The Pretty Witch of Lancaster
M:4/4
L:1/8
Q:180
S:James Biggins MS, Leeds,1779.
R:Reel
K:F
A|F>G FA |c>d fd|cA fA |G>G GA|F>G FA| c>d fd|cA fA |F>F F:|
|:f/g/|a>g  fd| f>d cA|FA fA |G>G  Gf/g/|ag/f/ gf/e/|f>d cA)|F>A fA|F>F F:|]
%%newpage
%%vskip .5cm
